public/icons/rym.svg

<svg width="143" height="143" viewBox="0 0 143 143" fill="none" xmlns="http://www.w3.org/2000/svg">
<path d="M85.7921 43.0106C96.6509 47.3959 115.863 46.7695 127.766 45.7254C117.951 24.2165 96.2333 9.18123 71.1744 9.18123C59.0627 9.18123 47.995 12.5224 38.3892 18.5783C59.2715 8.76358 69.295 36.1195 85.7921 43.0106Z" fill="#E6E4E5"/>
<path d="M142.174 71.4106C142.174 110.669 110.433 142.411 71.1738 142.411C31.915 142.411 0.173828 110.669 0.173828 71.4106C0.173828 32.1518 31.915 0.410645 71.1738 0.410645C110.433 0.410645 142.174 32.3606 142.174 71.4106Z" fill="#E6E4E5"/>
<path d="M107.717 67.8609C117.323 68.4874 126.093 65.9815 132.776 63.058C131.94 56.7933 130.27 50.9463 127.764 45.5169C115.861 46.561 96.6492 47.1874 85.7904 42.8021C69.2934 35.911 58.4346 8.13754 38.3875 18.3699C20.6375 29.4375 8.94341 48.858 8.94341 71.4109C8.94341 77.258 9.77868 82.8962 11.2404 88.1168C21.0551 79.3462 41.7287 62.8492 60.314 57.8374C85.3728 51.1551 87.0434 66.608 107.717 67.8609Z" fill="url(#paint0_linear_0_86)"/>
<path d="M132.777 63.2667C126.095 66.1902 117.324 68.4872 107.718 68.0696C87.0447 66.8167 85.3742 51.1549 60.1065 58.0461C41.73 63.0579 21.0565 79.7637 11.033 88.3255C13.1212 95.4255 16.2536 102.108 20.6389 108.164C27.3212 102.525 35.4653 97.3049 44.4447 95.4255C70.13 89.996 70.13 108.372 91.8477 105.867C103.751 104.405 120.039 92.9196 132.359 82.8961C132.986 79.3461 133.404 75.5873 133.404 71.8284C133.404 68.6961 133.195 65.9814 132.777 63.2667Z" fill="url(#paint1_linear_0_86)"/>
<path d="M44.4443 95.2164C35.4649 97.0958 27.3208 102.316 20.6384 107.955C31.9149 123.616 50.2913 133.849 71.1737 133.849C101.871 133.849 127.138 111.713 132.359 82.687C120.038 92.7106 103.75 104.196 91.8472 105.658C70.1296 108.163 70.1296 89.5782 44.4443 95.2164Z" fill="url(#paint2_linear_0_86)"/>
<path d="M97.2771 83.1047C99.783 89.3694 97.4859 96.2606 91.6389 98.7665C86.0007 101.064 79.3184 97.9311 76.6037 91.8752C74.0978 85.6105 76.3948 78.7194 82.2419 76.2135C88.0889 73.7076 94.7712 76.84 97.2771 83.1047Z" fill="url(#paint3_linear_0_86)"/>
<defs>
<linearGradient id="paint0_linear_0_86" x1="70.8335" y1="57.9435" x2="70.8335" y2="17.9123" gradientUnits="userSpaceOnUse">
<stop offset="0" stop-color="#88C6EB"/>
<stop offset="1" stop-color="#2392CC"/>
</linearGradient>
<linearGradient id="paint1_linear_0_86" x1="76.8285" y1="109.069" x2="70.589" y2="66.1666" gradientUnits="userSpaceOnUse">
<stop offset="0" stop-color="#2383C6"/>
<stop offset="1" stop-color="#33519F"/>
</linearGradient>
<linearGradient id="paint2_linear_0_86" x1="76.5127" y1="128.007" x2="76.5127" y2="94.94" gradientUnits="userSpaceOnUse">
<stop offset="0" stop-color="#1E4999"/>
<stop offset="1" stop-color="#1B3B6C"/>
</linearGradient>
<linearGradient id="paint3_linear_0_86" x1="88.7722" y1="102.59" x2="85.7469" y2="75.5277" gradientUnits="userSpaceOnUse">
<stop offset="0" stop-color="#1E4999"/>
<stop offset="1" stop-color="#1B3B6C"/>
</linearGradient>
</defs>
</svg>

<svg xmlns="http://www.w3.org/2000/svg" width="143" height="143" fill="none"><path fill="#E6E4E5" d="M85.792 43.01c10.859 4.386 30.071 3.76 41.974 2.715-9.815-21.509-31.533-36.544-56.592-36.544-12.111 0-23.179 3.341-32.785 9.397C59.272 8.764 69.295 36.12 85.792 43.011Z"/><path fill="#E6E4E5" d="M142.174 71.41c0 39.259-31.741 71.001-71 71.001s-71-31.742-71-71c0-39.26 31.741-71 71-71s71 31.95 71 71Z"/><path fill="url(#a)" d="M107.717 67.86c9.606.627 18.376-1.879 25.059-4.802-.836-6.265-2.506-12.112-5.012-17.541-11.903 1.044-31.115 1.67-41.974-2.715C69.293 35.911 58.435 8.138 38.387 18.37 20.638 29.437 8.944 48.858 8.944 71.41a62.08 62.08 0 0 0 2.297 16.707c9.815-8.77 30.489-25.268 49.074-30.28 25.059-6.682 26.73 8.771 47.403 10.024Z"/><path fill="url(#b)" d="M132.777 63.267c-6.682 2.923-15.453 5.22-25.059 4.803-20.673-1.253-22.344-16.915-47.612-10.024-18.376 5.012-39.05 21.718-49.073 30.28 2.088 7.1 5.22 13.782 9.606 19.838 6.682-5.639 14.826-10.86 23.806-12.739 25.685-5.429 25.685 12.947 47.403 10.442 11.903-1.462 28.191-12.947 40.511-22.97.627-3.55 1.045-7.31 1.045-11.069 0-3.132-.209-5.847-.627-8.561Z"/><path fill="url(#c)" d="M44.444 95.216c-8.98 1.88-17.123 7.1-23.806 12.739 11.277 15.661 29.653 25.894 50.536 25.894 30.697 0 55.964-22.136 61.185-51.162-12.321 10.024-28.609 21.509-40.512 22.971-21.717 2.505-21.717-16.08-47.403-10.442Z"/><path fill="url(#d)" d="M97.277 83.105c2.506 6.264.209 13.156-5.638 15.661-5.638 2.298-12.32-.835-15.035-6.89-2.506-6.266-.21-13.157 5.638-15.663 5.847-2.505 12.53.627 15.035 6.892Z"/><defs><linearGradient id="a" x1="70.834" x2="70.834" y1="57.944" y2="17.912" gradientUnits="userSpaceOnUse"><stop offset="0" stop-color="#88C6EB"/><stop offset="1" stop-color="#2392CC"/></linearGradient><linearGradient id="b" x1="76.829" x2="70.589" y1="109.069" y2="66.167" gradientUnits="userSpaceOnUse"><stop offset="0" stop-color="#2383C6"/><stop offset="1" stop-color="#33519F"/></linearGradient><linearGradient id="c" x1="76.513" x2="76.513" y1="128.007" y2="94.94" gradientUnits="userSpaceOnUse"><stop offset="0" stop-color="#1E4999"/><stop offset="1" stop-color="#1B3B6C"/></linearGradient><linearGradient id="d" x1="88.772" x2="85.747" y1="102.59" y2="75.528" gradientUnits="userSpaceOnUse"><stop offset="0" stop-color="#1E4999"/><stop offset="1" stop-color="#1B3B6C"/></linearGradient></defs></svg>
